brush-off.svg

<svg fill="currentColor" viewBox="0 0 24 24"><path d="m20.8 22.7-8.4-8.4-.6.7L9 12.2l.7-.7L1.1 3l1.3-1.3 19.7 19.7zM7 14c-1.7 0-3 1.3-3 3 0 1.3-1.2 2-2 2 .9 1.2 2.5 2 4 2 2.2 0 4-1.8 4-4 0-1.7-1.3-3-3-3m13.7-8c.4-.4.4-1 0-1.4l-1.3-1.3c-.4-.4-1-.4-1.4 0L12.2 9l2.8 2.8z"/></svg>

<svg  viewBox="0 0 24 24" fill="currentColor"><path  d="M20.8 22.7L12.4 14.3L11.8 15L9 12.2L9.7 11.5L1.1 3L2.4 1.7L22.1 21.4L20.8 22.7M7 14C5.3 14 4 15.3 4 17C4 18.3 2.8 19 2 19C2.9 20.2 4.5 21 6 21C8.2 21 10 19.2 10 17C10 15.3 8.7 14 7 14M20.7 6C21.1 5.6 21.1 5 20.7 4.6L19.4 3.3C19 2.9 18.4 2.9 18 3.3L12.2 9L15 11.8L20.7 6Z"/></svg>
